X: 1177
T: The Humors of Westport
M:C|
L:1/8
R:Reel
B:O'Neill's 1177
N:collected by J. O'Neill
Z:transcribed by Trish O'Neil, oneil@cybernw.com
K:F
f2{g}(fe) fcAc|f2{g}(fe) fagf|fage fcAc|T(BA)GA (Bc)de|
f2{g}(fe) fcAc|f2{g}(fe) fagb|afge fcAc|T(BA)GA (Bd)cB||
AFcF dFcF|AFcF BdcB|AFcF dFcF|T(BA)GA (Bd)cB|
AFcF dFcF|AFcF BdcB|Acfa gefc|T(BA)GA (Bc)de||


